X: 25
T: No_123_Song_Accompanying_the_Gift_of_a_Pony.krn
%%abc-version 2.0
%%abcx-abcm2ps-target-version 5.9.1 (29 Sep 2008)
%%abc-creator hum2abc beta
%%abcx-conversion-date 2020/08/10 18:54:57
%%gracespace 0 6 6
%%humdrum-veritas 3275288704
%%humdrum-veritas-data 508544694
%%linebreak <none>
%%barnumbers 0
L: 1/8
M: 2/4
%%staves {1 2}
V: 1 clef=bass
V: 2 clef=bass
K: Gb
[V:1] [K:clef=bass][M:2/4]E2E2 | 
[V:2] [K:clef=bass][M:2/4](3!accent!G,, z G,, (3!accent!G,, z G,, | 
[V:1] E>B,B,2 | 
[V:2] z4 | 
[V:1] E2E2 | 
[V:2] z4 | 
[V:1] E>B,B,2 ||  
[V:2] z4 ||  
[V:1] [M:3/4]B,A,/>G,/G,2A,G, ||  
[V:2] [M:3/4]z6 ||  
[V:1] [M:2/4]E,<E,E,2 | 
[V:2] [M:2/4]z4 | 
[V:1] G,A,/>G,/G,2 | 
[V:2] z4 | 
[V:1] E,<E, E,E, | 
[V:2] z4 | 
[V:1] E,4- | 
[V:2] z4 | 
[V:1] E,4 | 
[V:2] z4 | 
[V:1] B,B,/>B,/B,2 ||  
[V:2] z4 ||  
[V:1] [M:3/4]B,A,/>G,/G,2A,G, ||  
[V:2] [M:3/4]z6 ||  
[V:1] [M:2/4]E,<E,E,2 | 
[V:2] [M:2/4]z4 | 
[V:1] G,A,G,2 | 
[V:2] z4 | 
[V:1] E,<E, E,E, | 
[V:2] z4 | 
[V:1] E,4- | 
[V:2] z4 | 
[V:1] E,4 |]  
[V:2] z4 |]  


